Newaita-dark/apps/48/geeqie.svg

<svg height="48pt" viewBox="0 0 48 48" width="48pt" xmlns="http://www.w3.org/2000/svg" xmlns:xlink="http://www.w3.org/1999/xlink"><linearGradient id="a" gradientUnits="userSpaceOnUse" x1="23.81478" x2="23.81478" y1="40.0663405" y2="42.05090650005"><stop offset="0" stop-opacity=".27451"/><stop offset="1" stop-opacity="0"/></linearGradient><linearGradient id="b"><stop offset="0" stop-opacity=".313725"/><stop offset=".222222" stop-opacity=".27451"/><stop offset="1" stop-opacity="0"/></linearGradient><radialGradient id="c" cx="450.908936" cy="189.579361" gradientTransform="matrix(.00000026 -.117199 -.210958 -.00000015 80.180536 93.408435)" gradientUnits="userSpaceOnUse" r="21.166656" xlink:href="#b"/><radialGradient id="d" cx="450.908936" cy="189.579361" gradientTransform="matrix(-.00000026 .117199 .210958 .00000015 -32.550992 -13.275782)" gradientUnits="userSpaceOnUse" r="21.166656" xlink:href="#b"/><radialGradient id="e" cx="450.908936" cy="189.579361" gradientTransform="matrix(-.00000026 -.117199 .210958 -.00000015 -32.550992 93.408435)" gradientUnits="userSpaceOnUse" r="21.166656" xlink:href="#b"/><radialGradient id="f" cx="450.908936" cy="189.579361" gradientTransform="matrix(.00000026 .117199 -.210958 .00000015 80.180533 -13.275783)" gradientUnits="userSpaceOnUse" r="21.166656" xlink:href="#b"/><linearGradient id="g"><stop offset="0" stop-color="#42a5f5"/><stop offset="1" stop-color="#9fa8da"/></linearGradient><linearGradient id="h" gradientTransform="matrix(.113024 0 0 .326118 -8.78102 50.462022)" gradientUnits="userSpaceOnUse" x1="305.954559" x2="305.954559" xlink:href="#g" y1="-31.87709" y2="-135.329163"/><linearGradient id="i"><stop offset="0" stop-color="#37474f"/><stop offset="1" stop-color="#455a64"/></linearGradient><linearGradient id="j" gradientUnits="userSpaceOnUse" x1="23.814816" x2="23.814816" xlink:href="#i" y1="40.06639780616" y2="25.18213629293"/><linearGradient id="k"><stop offset="0" stop-color="#fdd835"/><stop offset="1" stop-color="#fff176"/></linearGradient><linearGradient id="l" gradientUnits="userSpaceOnUse" x1="34.72994" x2="34.72994" xlink:href="#k" y1="17.24386429293" y2="11.29016029293"/><linearGradient id="m" gradientTransform="matrix(4.556143 0 0 13.146184 -353.972656 2034.180176)" gradientUnits="userSpaceOnUse" x1="305.954559" x2="305.954559" y1="-31.87709" y2="-135.329163"><stop offset="0" stop-color="#b2ebf2"/><stop offset="1" stop-color="#e0f7fa"/></linearGradient><linearGradient id="n" gradientTransform="matrix(.0253728 0 0 .0732102 -.087937 26.958922)" gradientUnits="userSpaceOnUse" x1="296.776154" x2="296.776154" y1="-51.378063" y2="-139.478302"><stop offset="0" stop-color="#81d4fa"/><stop offset="1" stop-color="#fce4ec"/></linearGradient><linearGradient id="o" gradientTransform="matrix(.022874 0 0 .0660001 1.58956 16.607139)" gradientUnits="userSpaceOnUse" x1="320.931091" x2="320.931091" xlink:href="#g" y1="-35.456806" y2="-125.664146"/><linearGradient id="p" gradientUnits="userSpaceOnUse" x1="8.1863328" x2="8.1863328" xlink:href="#i" y1="14.50325544" y2="11.49096713375"/><linearGradient id="q" gradientUnits="userSpaceOnUse" x1="9.479845" x2="9.479845" xlink:href="#k" y1="10.12991753375" y2="8.92500233375"/><linearGradient id="r" gradientUnits="userSpaceOnUse" x1="7.2294848" x2="7.2294848" y1="24.62519699704" y2="21.28383865734"><stop offset="0" stop-color="#455a64"/><stop offset="1" stop-color="#78909c"/></linearGradient><linearGradient id="s" gradientUnits="userSpaceOnUse" x1="9.45704824118" x2="9.45704824118" y1="19.72454005" y2="17.94248440441"><stop offset="0" stop-color="#e57373"/><stop offset="1" stop-color="#ef9a9a"/></linearGradient><path d="m6.945312 40.066406h33.738282v1.929688h-33.738282zm0 0" fill="url(#a)"/><path d="m40.683594 40.066406h3.96875v-1.984375h-3.96875zm0 0" fill="url(#c)"/><path d="m6.945312 40.066406h-3.96875v1.984375h3.96875zm0 0" fill="url(#d)"/><path d="m6.945312 40.066406h-3.96875v-1.984375h3.96875zm0 0" fill="url(#e)"/><path d="m40.683594 40.066406h3.96875v1.984375h-3.96875zm0 0" fill="url(#f)"/><path d="m4.960938 6.328125h37.707031c1.097656 0 1.984375.890625 1.984375 1.984375v29.769531c0 1.097657-.886719 1.984375-1.984375 1.984375h-37.707031c-1.09375 0-1.984376-.886718-1.984376-1.984375v-29.769531c0-1.09375.890626-1.984375 1.984376-1.984375zm0 0" fill="url(#h)"/><path d="m2.976562 29.152344v8.929687c0 1.097657.886719 1.984375 1.984376 1.984375h37.707031c1.101562 0 1.984375-.886718 1.984375-1.984375v-8.929687c-8.25 4.828125-10.925782-.550782-14.292969-1.433594-3.601563-.945312-4.289063 3.339844-7.921875 2.90625-3.632812-.4375-8.261719-5.914062-11.609375-5.570312s-5.03125 2.316406-7.851563 4.097656zm0 0" fill="url(#j)"/><path d="m4.960938 40.066406c-1.097657 0-1.984376-.886718-1.984376-1.984375v-.25c0 1.101563.886719 1.984375 1.984376 1.984375h37.707031c1.101562 0 1.984375-.882812 1.984375-1.984375v.25c0 1.097657-.882813 1.984375-1.984375 1.984375zm0 0" fill-opacity=".196078"/><path d="m4.960938 6.328125c-1.097657 0-1.984376.886719-1.984376 1.984375v.25c0-1.101562.886719-1.988281 1.984376-1.984375h37.707031c1.101562-.003906 1.984375.882813 1.984375 1.984375v-.25c0-1.097656-.882813-1.984375-1.984375-1.984375zm0 0" fill="#e6e6e6" fill-opacity=".937255"/><path d="m4.960938 6.1875c-1.175782 0-2.125.949219-2.125 2.125v29.769531c0 1.175781.949218 2.125 2.125 2.125h37.707031c1.175781 0 2.125-.949219 2.125-2.125v-29.769531c0-1.175781-.949219-2.125-2.125-2.125zm0 .28125h37.707031c1.023437 0 1.84375.820312 1.84375 1.84375v29.769531c0 1.023438-.820313 1.84375-1.84375 1.84375h-37.707031c-1.023438 0-1.84375-.820312-1.84375-1.84375v-29.769531c0-1.023438.820312-1.84375 1.84375-1.84375zm0 0" fill="#212121"/><path d="m34.730469 11.289062c-.542969 0-1.050781.144532-1.488281.398438.890624.511719 1.488281 1.472656 1.488281 2.578125 0 1.109375-.597657 2.070313-1.488281 2.582031.4375.253906.945312.394532 1.488281.394532 1.648437 0 2.976562-1.324219 2.976562-2.976563 0-1.648437-1.328125-2.976563-2.976562-2.976563zm0 0" fill="url(#l)"/><path d="m199.980913 255.093763c-44.247745 0-79.992365 35.74462-79.992365 79.992366v1200.042945c0 44.247745 35.74462 79.992365 79.992365 79.992365h1520.012407c44.40521 0 79.992365-35.74462 79.992365-79.992365v-1200.042945c0-44.247746-35.587155-79.992366-79.992365-79.992366zm399.961827 79.992366h1040.058214c44.247746 0 79.992366 35.74462 79.992366 79.992365v1040.058214c0 44.247746-35.74462 79.992366-79.992366 79.992366h-1040.058214c-44.247746 0-79.992365-35.74462-79.992365-79.992366v-1040.058214c0-44.247745 35.744619-79.992365 79.992365-79.992365zm0 0" fill="url(#m)" stroke="#212121" stroke-linecap="round" stroke-width="11.338583" transform="scale(.0248071)"/><path d="m5.953125 17.242188c-.550781 0-.992187.445312-.992187.992187v3.972656c0 .546875.441406.992188.992187.992188h3.96875c.550781 0 .992187-.445313.992187-.992188v-3.972656c0-.546875-.441406-.992187-.992187-.992187zm0 0" fill="url(#n)"/><path d="m5.953125 8.3125c-.550781 0-.992187.441406-.992187.992188v3.96875c0 .550781.441406.992187.992187.992187h3.96875c.550781 0 .992187-.441406.992187-.992187v-3.96875c0-.550782-.441406-.992188-.992187-.992188zm0 0" fill="url(#o)"/><path d="m5.621094 11.460938c-.019532 0-.042969.003906-.0625.003906-.230469.023437-.421875.085937-.597656.171875v1.636719c0 .550781.441406.992187.992187.992187h3.96875c.550781 0 .992187-.441406.992187-.992187v-.597657c-.613281-.101562-.980468-.5625-1.402343-.671875-.730469-.191406-.867188.675782-1.605469.589844-.710938-.085938-1.613281-1.128906-2.285156-1.132812zm0 0" fill="url(#p)"/><path d="m9.480469 8.925781c-.109375 0-.214844.027344-.300781.078125.179687.105469.300781.300782.300781.523438s-.121094.417968-.300781.523437c.085937.050781.191406.078125.300781.078125.332031 0 .601562-.269531.601562-.601562 0-.332032-.269531-.601563-.601562-.601563zm0 0" fill="url(#q)"/><path d="m63.493937-126.3418h42.329291c5.874439 0 10.582322 4.749547 10.582322 10.582323v42.329291c0 5.874439-4.707883 10.582323-10.582322 10.582323h-42.329291c-5.832777 0-10.582323-4.707884-10.582323-10.582323v-42.329291c0-5.832776 4.749546-10.582323 10.582323-10.582323zm0 0" fill="none" stroke="#212121" stroke-linecap="round" stroke-linejoin="round" stroke-width="3" transform="matrix(.093759 0 0 .093759 0 20.158175)"/><path d="m4.960938 21.421875v.785156c0 .546875.441406.992188.992187.992188h3.96875c.414063 0 .761719-.25.914063-.605469-1.058594.175781-1.550782-.585938-2.136719-.742188-.808594-.210937-.964844.75-1.777344.652344-.601563-.070312-1.320313-.753906-1.960937-1.082031zm0 0" fill="url(#r)"/><path d="m9.457031 17.941406c.492188 0 .890625.398438.890625.890625 0 .492188-.398437.890625-.890625.890625-.492187 0-.890625-.398437-.890625-.890625 0-.492187.398438-.890625.890625-.890625zm0 0" fill="url(#s)"/><path d="m63.493937-31.100895h42.329291c5.874439 0 10.582322 4.749547 10.582322 10.582323v42.370954c0 5.832776-4.707883 10.582322-10.582322 10.582322h-42.329291c-5.832777 0-10.582323-4.749546-10.582323-10.582322v-42.370954c0-5.832776 4.749546-10.582323 10.582323-10.582323zm0 0" fill="none" stroke="#212121" stroke-linecap="round" stroke-linejoin="round" stroke-width="3" transform="matrix(.093759 0 0 .093759 0 20.158175)"/></svg>

<?xml version="1.0" encoding="UTF-8"?>
<svg xmlns="http://www.w3.org/2000/svg" xmlns:xlink="http://www.w3.org/1999/xlink" width="48pt" height="48pt" viewBox="0 0 48 48" version="1.1">
<defs>
<linearGradient id="linear0" gradientUnits="userSpaceOnUse" x1="254" y1="233.5" x2="254" y2="254.666672" gradientTransform="matrix(0.093759,0,0,0.093759,-0.00000572259,18.173614)">
<stop offset="0" style="stop-color:rgb(0%,0%,0%);stop-opacity:0.27451;"/>
<stop offset="1" style="stop-color:rgb(0%,0%,0%);stop-opacity:0;"/>
</linearGradient>
<radialGradient id="radial0" gradientUnits="userSpaceOnUse" cx="450.908936" cy="189.579361" fx="450.908936" fy="189.579361" r="21.166656" gradientTransform="matrix(0.000000261256,-0.117199,-0.210958,-0.000000152308,80.180536,93.408435)">
<stop offset="0" style="stop-color:rgb(0%,0%,0%);stop-opacity:0.313725;"/>
<stop offset="0.222222" style="stop-color:rgb(0%,0%,0%);stop-opacity:0.27451;"/>
<stop offset="1" style="stop-color:rgb(0%,0%,0%);stop-opacity:0;"/>
</radialGradient>
<radialGradient id="radial1" gradientUnits="userSpaceOnUse" cx="450.908936" cy="189.579361" fx="450.908936" fy="189.579361" r="21.166656" gradientTransform="matrix(-0.000000261256,0.117199,0.210958,0.000000152308,-32.550992,-13.275782)">
<stop offset="0" style="stop-color:rgb(0%,0%,0%);stop-opacity:0.313725;"/>
<stop offset="0.222222" style="stop-color:rgb(0%,0%,0%);stop-opacity:0.27451;"/>
<stop offset="1" style="stop-color:rgb(0%,0%,0%);stop-opacity:0;"/>
</radialGradient>
<radialGradient id="radial2" gradientUnits="userSpaceOnUse" cx="450.908936" cy="189.579361" fx="450.908936" fy="189.579361" r="21.166656" gradientTransform="matrix(-0.000000261256,-0.117199,0.210958,-0.000000152308,-32.550992,93.408435)">
<stop offset="0" style="stop-color:rgb(0%,0%,0%);stop-opacity:0.313725;"/>
<stop offset="0.222222" style="stop-color:rgb(0%,0%,0%);stop-opacity:0.27451;"/>
<stop offset="1" style="stop-color:rgb(0%,0%,0%);stop-opacity:0;"/>
</radialGradient>
<radialGradient id="radial3" gradientUnits="userSpaceOnUse" cx="450.908936" cy="189.579361" fx="450.908936" fy="189.579361" r="21.166656" gradientTransform="matrix(0.000000261256,0.117199,-0.210958,0.000000152308,80.180533,-13.275783)">
<stop offset="0" style="stop-color:rgb(0%,0%,0%);stop-opacity:0.313725;"/>
<stop offset="0.222222" style="stop-color:rgb(0%,0%,0%);stop-opacity:0.27451;"/>
<stop offset="1" style="stop-color:rgb(0%,0%,0%);stop-opacity:0;"/>
</radialGradient>
<linearGradient id="linear1" gradientUnits="userSpaceOnUse" x1="305.954559" y1="-31.87709" x2="305.954559" y2="-135.329163" gradientTransform="matrix(0.113024,0,0,0.326118,-8.78102,50.462022)">
<stop offset="0" style="stop-color:rgb(25.882353%,64.705882%,96.078431%);stop-opacity:1;"/>
<stop offset="1" style="stop-color:rgb(62.352941%,65.882353%,85.490196%);stop-opacity:1;"/>
</linearGradient>
<linearGradient id="linear2" gradientUnits="userSpaceOnUse" x1="960" y1="1615.118164" x2="960" y2="1015.118103" gradientTransform="matrix(0.0248071,0,0,0.0248071,0,0)">
<stop offset="0" style="stop-color:rgb(21.568627%,27.843137%,30.980392%);stop-opacity:1;"/>
<stop offset="1" style="stop-color:rgb(27.058824%,35.294118%,39.215686%);stop-opacity:1;"/>
</linearGradient>
<linearGradient id="linear3" gradientUnits="userSpaceOnUse" x1="1400" y1="695.118103" x2="1400" y2="455.118103" gradientTransform="matrix(0.0248071,0,0,0.0248071,0,0)">
<stop offset="0" style="stop-color:rgb(99.215686%,84.705882%,20.784314%);stop-opacity:1;"/>
<stop offset="1" style="stop-color:rgb(100%,94.509804%,46.27451%);stop-opacity:1;"/>
</linearGradient>
<linearGradient id="linear4" gradientUnits="userSpaceOnUse" x1="305.954559" y1="-31.87709" x2="305.954559" y2="-135.329163" gradientTransform="matrix(4.556143,0,0,13.146184,-353.972656,2034.180176)">
<stop offset="0" style="stop-color:rgb(69.803922%,92.156863%,94.901961%);stop-opacity:1;"/>
<stop offset="1" style="stop-color:rgb(87.843137%,96.862745%,98.039216%);stop-opacity:1;"/>
</linearGradient>
<linearGradient id="linear5" gradientUnits="userSpaceOnUse" x1="296.776154" y1="-51.378063" x2="296.776154" y2="-139.478302" gradientTransform="matrix(0.0253728,0,0,0.0732102,-0.0879371,26.958922)">
<stop offset="0" style="stop-color:rgb(50.588235%,83.137255%,98.039216%);stop-opacity:1;"/>
<stop offset="1" style="stop-color:rgb(98.823529%,89.411765%,92.54902%);stop-opacity:1;"/>
</linearGradient>
<linearGradient id="linear6" gradientUnits="userSpaceOnUse" x1="320.931091" y1="-35.456806" x2="320.931091" y2="-125.664146" gradientTransform="matrix(0.022874,0,0,0.0660001,1.58956,16.607139)">
<stop offset="0" style="stop-color:rgb(25.882353%,64.705882%,96.078431%);stop-opacity:1;"/>
<stop offset="1" style="stop-color:rgb(62.352941%,65.882353%,85.490196%);stop-opacity:1;"/>
</linearGradient>
<linearGradient id="linear7" gradientUnits="userSpaceOnUse" x1="960" y1="1615.118164" x2="960" y2="1015.118103" gradientTransform="matrix(0.00502048,0,0,0.00502048,3.366672,6.394587)">
<stop offset="0" style="stop-color:rgb(21.568627%,27.843137%,30.980392%);stop-opacity:1;"/>
<stop offset="1" style="stop-color:rgb(27.058824%,35.294118%,39.215686%);stop-opacity:1;"/>
</linearGradient>
<linearGradient id="linear8" gradientUnits="userSpaceOnUse" x1="1400" y1="695.118103" x2="1400" y2="455.118103" gradientTransform="matrix(0.00502048,0,0,0.00502048,2.451173,6.640091)">
<stop offset="0" style="stop-color:rgb(99.215686%,84.705882%,20.784314%);stop-opacity:1;"/>
<stop offset="1" style="stop-color:rgb(100%,94.509804%,46.27451%);stop-opacity:1;"/>
</linearGradient>
<linearGradient id="linear9" gradientUnits="userSpaceOnUse" x1="960" y1="1615.118164" x2="960" y2="1015.118103" gradientTransform="matrix(0.00556893,0,0,0.00556893,1.883312,15.630717)">
<stop offset="0" style="stop-color:rgb(27.058824%,35.294118%,39.215686%);stop-opacity:1;"/>
<stop offset="1" style="stop-color:rgb(47.058824%,56.470588%,61.176471%);stop-opacity:1;"/>
</linearGradient>
<linearGradient id="linear10" gradientUnits="userSpaceOnUse" x1="359.833344" y1="-20.5" x2="359.833344" y2="-105.166672" gradientTransform="matrix(0.0210479,0,0,0.0210479,1.883312,20.156022)">
<stop offset="0" style="stop-color:rgb(89.803922%,45.098039%,45.098039%);stop-opacity:1;"/>
<stop offset="1" style="stop-color:rgb(93.72549%,60.392157%,60.392157%);stop-opacity:1;"/>
</linearGradient>
</defs>
<g id="surface1">
<path style=" stroke:none;fill-rule:nonzero;fill:url(#linear0);" d="M 6.945312 40.066406 L 40.683594 40.066406 L 40.683594 41.996094 L 6.945312 41.996094 Z M 6.945312 40.066406 "/>
<path style=" stroke:none;fill-rule:nonzero;fill:url(#radial0);" d="M 40.683594 40.066406 L 44.652344 40.066406 L 44.652344 38.082031 L 40.683594 38.082031 Z M 40.683594 40.066406 "/>
<path style=" stroke:none;fill-rule:nonzero;fill:url(#radial1);" d="M 6.945312 40.066406 L 2.976562 40.066406 L 2.976562 42.050781 L 6.945312 42.050781 Z M 6.945312 40.066406 "/>
<path style=" stroke:none;fill-rule:nonzero;fill:url(#radial2);" d="M 6.945312 40.066406 L 2.976562 40.066406 L 2.976562 38.082031 L 6.945312 38.082031 Z M 6.945312 40.066406 "/>
<path style=" stroke:none;fill-rule:nonzero;fill:url(#radial3);" d="M 40.683594 40.066406 L 44.652344 40.066406 L 44.652344 42.050781 L 40.683594 42.050781 Z M 40.683594 40.066406 "/>
<path style=" stroke:none;fill-rule:nonzero;fill:url(#linear1);" d="M 4.960938 6.328125 L 42.667969 6.328125 C 43.765625 6.328125 44.652344 7.21875 44.652344 8.3125 L 44.652344 38.082031 C 44.652344 39.179688 43.765625 40.066406 42.667969 40.066406 L 4.960938 40.066406 C 3.867188 40.066406 2.976562 39.179688 2.976562 38.082031 L 2.976562 8.3125 C 2.976562 7.21875 3.867188 6.328125 4.960938 6.328125 Z M 4.960938 6.328125 "/>
<path style=" stroke:none;fill-rule:nonzero;fill:url(#linear2);" d="M 2.976562 29.152344 L 2.976562 38.082031 C 2.976562 39.179688 3.863281 40.066406 4.960938 40.066406 L 42.667969 40.066406 C 43.769531 40.066406 44.652344 39.179688 44.652344 38.082031 L 44.652344 29.152344 C 36.402344 33.980469 33.726562 28.601562 30.359375 27.71875 C 26.757812 26.773438 26.070312 31.058594 22.4375 30.625 C 18.804688 30.1875 14.175781 24.710938 10.828125 25.054688 C 7.480469 25.398438 5.796875 27.371094 2.976562 29.152344 Z M 2.976562 29.152344 "/>
<path style=" stroke:none;fill-rule:nonzero;fill:rgb(0%,0%,0%);fill-opacity:0.196078;" d="M 4.960938 40.066406 C 3.863281 40.066406 2.976562 39.179688 2.976562 38.082031 L 2.976562 37.832031 C 2.976562 38.933594 3.863281 39.816406 4.960938 39.816406 L 42.667969 39.816406 C 43.769531 39.816406 44.652344 38.933594 44.652344 37.832031 L 44.652344 38.082031 C 44.652344 39.179688 43.769531 40.066406 42.667969 40.066406 Z M 4.960938 40.066406 "/>
<path style=" stroke:none;fill-rule:nonzero;fill:rgb(90.196079%,90.196079%,90.196079%);fill-opacity:0.937255;" d="M 4.960938 6.328125 C 3.863281 6.328125 2.976562 7.214844 2.976562 8.3125 L 2.976562 8.5625 C 2.976562 7.460938 3.863281 6.574219 4.960938 6.578125 L 42.667969 6.578125 C 43.769531 6.574219 44.652344 7.460938 44.652344 8.5625 L 44.652344 8.3125 C 44.652344 7.214844 43.769531 6.328125 42.667969 6.328125 Z M 4.960938 6.328125 "/>
<path style=" stroke:none;fill-rule:nonzero;fill:rgb(12.941177%,12.941177%,12.941177%);fill-opacity:1;" d="M 4.960938 6.1875 C 3.785156 6.1875 2.835938 7.136719 2.835938 8.3125 L 2.835938 38.082031 C 2.835938 39.257812 3.785156 40.207031 4.960938 40.207031 L 42.667969 40.207031 C 43.84375 40.207031 44.792969 39.257812 44.792969 38.082031 L 44.792969 8.3125 C 44.792969 7.136719 43.84375 6.1875 42.667969 6.1875 Z M 4.960938 6.46875 L 42.667969 6.46875 C 43.691406 6.46875 44.511719 7.289062 44.511719 8.3125 L 44.511719 38.082031 C 44.511719 39.105469 43.691406 39.925781 42.667969 39.925781 L 4.960938 39.925781 C 3.9375 39.925781 3.117188 39.105469 3.117188 38.082031 L 3.117188 8.3125 C 3.117188 7.289062 3.9375 6.46875 4.960938 6.46875 Z M 4.960938 6.46875 "/>
<path style=" stroke:none;fill-rule:nonzero;fill:url(#linear3);" d="M 34.730469 11.289062 C 34.1875 11.289062 33.679688 11.433594 33.242188 11.6875 C 34.132812 12.199219 34.730469 13.160156 34.730469 14.265625 C 34.730469 15.375 34.132812 16.335938 33.242188 16.847656 C 33.679688 17.101562 34.1875 17.242188 34.730469 17.242188 C 36.378906 17.242188 37.707031 15.917969 37.707031 14.265625 C 37.707031 12.617188 36.378906 11.289062 34.730469 11.289062 Z M 34.730469 11.289062 "/>
<path style="fill-rule:nonzero;fill:url(#linear4);stroke-width:11.338583;stroke-linecap:round;stroke-linejoin:miter;stroke:rgb(12.941177%,12.941177%,12.941177%);stroke-opacity:1;stroke-miterlimit:4;" d="M 199.980913 255.093763 C 155.733168 255.093763 119.988548 290.838383 119.988548 335.086129 L 119.988548 1535.129074 C 119.988548 1579.376819 155.733168 1615.121439 199.980913 1615.121439 L 1719.99332 1615.121439 C 1764.39853 1615.121439 1799.985685 1579.376819 1799.985685 1535.129074 L 1799.985685 335.086129 C 1799.985685 290.838383 1764.39853 255.093763 1719.99332 255.093763 Z M 599.94274 335.086129 L 1640.000954 335.086129 C 1684.2487 335.086129 1719.99332 370.830749 1719.99332 415.078494 L 1719.99332 1455.136708 C 1719.99332 1499.384454 1684.2487 1535.129074 1640.000954 1535.129074 L 599.94274 1535.129074 C 555.694994 1535.129074 519.950375 1499.384454 519.950375 1455.136708 L 519.950375 415.078494 C 519.950375 370.830749 555.694994 335.086129 599.94274 335.086129 Z M 599.94274 335.086129 " transform="matrix(0.0248071,0,0,0.0248071,0,0)"/>
<path style=" stroke:none;fill-rule:nonzero;fill:url(#linear5);" d="M 5.953125 17.242188 C 5.402344 17.242188 4.960938 17.6875 4.960938 18.234375 L 4.960938 22.207031 C 4.960938 22.753906 5.402344 23.199219 5.953125 23.199219 L 9.921875 23.199219 C 10.472656 23.199219 10.914062 22.753906 10.914062 22.207031 L 10.914062 18.234375 C 10.914062 17.6875 10.472656 17.242188 9.921875 17.242188 Z M 5.953125 17.242188 "/>
<path style=" stroke:none;fill-rule:nonzero;fill:url(#linear6);" d="M 5.953125 8.3125 C 5.402344 8.3125 4.960938 8.753906 4.960938 9.304688 L 4.960938 13.273438 C 4.960938 13.824219 5.402344 14.265625 5.953125 14.265625 L 9.921875 14.265625 C 10.472656 14.265625 10.914062 13.824219 10.914062 13.273438 L 10.914062 9.304688 C 10.914062 8.753906 10.472656 8.3125 9.921875 8.3125 Z M 5.953125 8.3125 "/>
<path style=" stroke:none;fill-rule:nonzero;fill:url(#linear7);" d="M 5.621094 11.460938 C 5.601562 11.460938 5.578125 11.464844 5.558594 11.464844 C 5.328125 11.488281 5.136719 11.550781 4.960938 11.636719 L 4.960938 13.273438 C 4.960938 13.824219 5.402344 14.265625 5.953125 14.265625 L 9.921875 14.265625 C 10.472656 14.265625 10.914062 13.824219 10.914062 13.273438 L 10.914062 12.675781 C 10.300781 12.574219 9.933594 12.113281 9.511719 12.003906 C 8.78125 11.8125 8.644531 12.679688 7.90625 12.59375 C 7.195312 12.507812 6.292969 11.464844 5.621094 11.460938 Z M 5.621094 11.460938 "/>
<path style=" stroke:none;fill-rule:nonzero;fill:url(#linear8);" d="M 9.480469 8.925781 C 9.371094 8.925781 9.265625 8.953125 9.179688 9.003906 C 9.359375 9.109375 9.480469 9.304688 9.480469 9.527344 C 9.480469 9.75 9.359375 9.945312 9.179688 10.050781 C 9.265625 10.101562 9.371094 10.128906 9.480469 10.128906 C 9.8125 10.128906 10.082031 9.859375 10.082031 9.527344 C 10.082031 9.195312 9.8125 8.925781 9.480469 8.925781 Z M 9.480469 8.925781 "/>
<path style="fill:none;stroke-width:3;stroke-linecap:round;stroke-linejoin:round;stroke:rgb(12.941177%,12.941177%,12.941177%);stroke-opacity:1;stroke-miterlimit:4;" d="M 63.493937 -126.3418 L 105.823228 -126.3418 C 111.697667 -126.3418 116.40555 -121.592253 116.40555 -115.759477 L 116.40555 -73.430186 C 116.40555 -67.555747 111.697667 -62.847863 105.823228 -62.847863 L 63.493937 -62.847863 C 57.66116 -62.847863 52.911614 -67.555747 52.911614 -73.430186 L 52.911614 -115.759477 C 52.911614 -121.592253 57.66116 -126.3418 63.493937 -126.3418 Z M 63.493937 -126.3418 " transform="matrix(0.093759,0,0,0.093759,0,20.158175)"/>
<path style=" stroke:none;fill-rule:nonzero;fill:url(#linear9);" d="M 4.960938 21.421875 L 4.960938 22.207031 C 4.960938 22.753906 5.402344 23.199219 5.953125 23.199219 L 9.921875 23.199219 C 10.335938 23.199219 10.683594 22.949219 10.835938 22.59375 C 9.777344 22.769531 9.285156 22.007812 8.699219 21.851562 C 7.890625 21.640625 7.734375 22.601562 6.921875 22.503906 C 6.320312 22.433594 5.601562 21.75 4.960938 21.421875 Z M 4.960938 21.421875 "/>
<path style=" stroke:none;fill-rule:nonzero;fill:url(#linear10);" d="M 9.457031 17.941406 C 9.949219 17.941406 10.347656 18.339844 10.347656 18.832031 C 10.347656 19.324219 9.949219 19.722656 9.457031 19.722656 C 8.964844 19.722656 8.566406 19.324219 8.566406 18.832031 C 8.566406 18.339844 8.964844 17.941406 9.457031 17.941406 Z M 9.457031 17.941406 "/>
<path style="fill:none;stroke-width:3;stroke-linecap:round;stroke-linejoin:round;stroke:rgb(12.941177%,12.941177%,12.941177%);stroke-opacity:1;stroke-miterlimit:4;" d="M 63.493937 -31.100895 L 105.823228 -31.100895 C 111.697667 -31.100895 116.40555 -26.351348 116.40555 -20.518572 L 116.40555 21.852382 C 116.40555 27.685158 111.697667 32.434704 105.823228 32.434704 L 63.493937 32.434704 C 57.66116 32.434704 52.911614 27.685158 52.911614 21.852382 L 52.911614 -20.518572 C 52.911614 -26.351348 57.66116 -31.100895 63.493937 -31.100895 Z M 63.493937 -31.100895 " transform="matrix(0.093759,0,0,0.093759,0,20.158175)"/>
</g>
</svg>
